X: 162100
T: Peeping Stars (The)
C: Joe Liddy
Z: BB
S: "The Leitrim Fiddler" (Dublin 1981)
N: Uses dotted rhythm
L: 1/8
M: 4/4
R: hornpipe (set dance)
Q: 1/4 = 160
K: D
AG | F2 DE FAcA | G2 FG Acde | fdec defg | fdcA dcAG |
F2 DE FAcA | GAFG Acde | fedc AGFE | DEFG Acde |
fdcd AcAG | F2 D2 D2 :|
FG | A2 dc d2 fg | afge fdef | dA (3BAG Acfg | fdcA GAFG |
A2 dc d2 fg | (3agf ge fdeg | fdcA GAFG | Ad (3edc d2 fg |
agfe fedc | dcAG FDEG | Adeg fedc | d2 A2 A2 eg |
fedc AGFE | DEFG Acde | fgef dcAG | A2 d2 d2 fg |
agfe dcAc | dcAG FDFG | Adcd AcAG | F2 D2 D2 :|
%%%%%%%%%%%%%%%%%%%%%%%%%%
